src/standard/burndown-chart.svg

<svg xmlns="http://www.w3.org/2000/svg" viewBox="0 0 36 36">
  <path d="M17.38 8v7a.62.62 0 0 0 1.24 0V8a.62.62 0 0 0-1.24 0Zm-7 0v3a.62.62 0 0 0 1.24 0V8a.62.62 0 0 0-1.24 0Zm14 0v11a.62.62 0 0 0 1.24 0V8a.62.62 0 0 0-1.24 0Z"/>
  <path d="M5 11.62a.62.62 0 0 0 .62-.62V5.62h24.76V23a.62.62 0 0 0 1.24 0V5a.62.62 0 0 0-.62-.62H5a.62.62 0 0 0-.62.62v6a.62.62 0 0 0 .62.62Zm26 16.76c-.92 0-.55 1.28-.62 2H5.62V17a.62.62 0 0 0-1.24 0v14a.62.62 0 0 0 .62.62h26a.62.62 0 0 0 .62-.62v-2a.62.62 0 0 0-.62-.62Z"/>
  <path d="M32 25.38h-4.74l-5.82-5.82a.6.6 0 0 0-.44-.18h-5.74l-5.82-5.82a.6.6 0 0 0-.44-.18H4a.62.62 0 0 0 0 1.24h4.74l5.82 5.82a.6.6 0 0 0 .44.18h5.74l5.82 5.82a.6.6 0 0 0 .44.18h5a.62.62 0 0 0 0-1.24Z"/>
</svg>

<svg id="f47716ee-2049-409a-bfbf-c65b825ab6e5" data-name="Icon" xmlns="http://www.w3.org/2000/svg" viewBox="0 0 36 36">
  <title>Burndown chart icon - Black</title>
<desc>rally, engineer, design, process, plan, project, collaboration, workfront, management, agile, diagrams and graphs</desc>
<metadata><?xpacket begin="﻿" id="W5M0MpCehiHzreSzNTczkc9d"?>
<x:xmpmeta xmlns:x="adobe:ns:meta/" x:xmptk="Adobe XMP Core 8.0-c001 1.000000, 0000/00/00-00:00:00        ">
   <rdf:RDF xmlns:rdf="http://www.w3.org/1999/02/22-rdf-syntax-ns#">
      <rdf:Description rdf:about=""
            xmlns:xmp="http://ns.adobe.com/xap/1.0/"
            xmlns:dc="http://purl.org/dc/elements/1.1/"
            xmlns:cq="http://www.day.com/jcr/cq/1.0"
            xmlns:tiff="http://ns.adobe.com/tiff/1.0/">
         <xmp:rhcc-effective-on>2023-12-08T17:34:45.683Z</xmp:rhcc-effective-on>
         <xmp:rhcc-metadata-complete-moderator>pending</xmp:rhcc-metadata-complete-moderator>
         <xmp:rhcc-translation-id>TRA0d7104ae-d054-43d2-ae1f-e904d54964de</xmp:rhcc-translation-id>
         <xmp:brand-content-type>Icon</xmp:brand-content-type>
         <xmp:CreateDate>2023-12-08T17:34:45.683Z</xmp:CreateDate>
         <xmp:rhcc-effective-on-set-on-upload>true</xmp:rhcc-effective-on-set-on-upload>
         <xmp:rhcc-metadata-complete-uploader>pending</xmp:rhcc-metadata-complete-uploader>
         <xmp:rhcc-file-last-modified>2023-12-08T17:35:17.492Z</xmp:rhcc-file-last-modified>
         <xmp:rhcc-audience>rhcc-audience:internal</xmp:rhcc-audience>
         <xmp:rhcc-rights-restricted>no</xmp:rhcc-rights-restricted>
         <xmp:brand-content-subtype>Icon</xmp:brand-content-subtype>
         <xmp:rhcc-derivative-id>DER0d7104ae-d054-43d2-ae1f-e904d54964de</xmp:rhcc-derivative-id>
         <xmp:brand-logo-color>Black</xmp:brand-logo-color>
         <xmp:rhcc-notify-portal-subscribers-on-change>yes</xmp:rhcc-notify-portal-subscribers-on-change>
         <dc:format>image/svg+xml</dc:format>
         <dc:modified>2024-02-09T20:34:07.868Z</dc:modified>
         <dc:title>
            <rdf:Alt>
               <rdf:li xml:lang="x-default">Burndown chart icon - Black</rdf:li>
            </rdf:Alt>
         </dc:title>
         <dc:description>
            <rdf:Alt>
               <rdf:li xml:lang="x-default">rally, engineer, design, process, plan, project, collaboration, workfront, management, agile, diagrams and graphs</rdf:li>
            </rdf:Alt>
         </dc:description>
         <cq:lastReplicationAction_scene7>Activate</cq:lastReplicationAction_scene7>
         <cq:lastReplicationAction_publish>Activate</cq:lastReplicationAction_publish>
         <cq:lastReplicated_publish>2024-02-09T22:21:39.531Z</cq:lastReplicated_publish>
         <cq:lastReplicatedBy>workflow-process-service</cq:lastReplicatedBy>
         <cq:lastReplicationAction>Activate</cq:lastReplicationAction>
         <cq:lastReplicatedBy_publish>workflow-process-service</cq:lastReplicatedBy_publish>
         <cq:isDelivered>true</cq:isDelivered>
         <cq:lastReplicated>2024-02-09T22:21:39.531Z</cq:lastReplicated>
         <cq:lastReplicatedBy_scene7>workflow-process-service</cq:lastReplicatedBy_scene7>
         <cq:lastReplicated_scene7>2024-02-09T22:21:39.531Z</cq:lastReplicated_scene7>
         <tiff:ImageLength>36</tiff:ImageLength>
         <tiff:ImageWidth>36</tiff:ImageWidth>
      </rdf:Description>
   </rdf:RDF>
</x:xmpmeta>
                                                                                                    
                                                                                                    
                                                                                                    
                                                                                                    
                                                                                                    
                                                                                                    
                                                                                                    
                                                                                                    
                                                                                                    
                                                                                                    
                                 
<?xpacket end="w"?></metadata>
<g>
    <path d="M17.38,8v7a.62.62,0,0,0,1.24,0V8A.62.62,0,0,0,17.38,8Z"/>
    <path d="M10.38,8v3a.62.62,0,0,0,1.24,0V8A.62.62,0,0,0,10.38,8Z"/>
    <path d="M24.38,8V19a.62.62,0,0,0,1.24,0V8A.62.62,0,0,0,24.38,8Z"/>
    <path d="M5,11.62A.62.62,0,0,0,5.62,11V5.62H30.38V23a.62.62,0,0,0,1.24,0V5A.62.62,0,0,0,31,4.38H5A.62.62,0,0,0,4.38,5v6A.62.62,0,0,0,5,11.62Z"/>
    <path d="M31,28.38c-.92,0-.55,1.28-.62,2H5.62V17a.62.62,0,0,0-1.24,0V31a.62.62,0,0,0,.62.62H31a.62.62,0,0,0,.62-.62V29A.62.62,0,0,0,31,28.38Z"/>
    <path d="M32,25.38H27.26l-5.82-5.82a.6.6,0,0,0-.44-.18H15.26L9.44,13.56A.6.6,0,0,0,9,13.38H4a.62.62,0,0,0,0,1.24H8.74l5.82,5.82a.6.6,0,0,0,.44.18h5.74l5.82,5.82a.6.6,0,0,0,.44.18h5A.62.62,0,0,0,32,25.38Z"/>
  </g>
</svg>
